src/base/static/base/assets/include/rs-plugin/demos/assets/svg/av/ic_games_24px.svg

<svg height="24" viewBox="0 0 24 24" width="24" xmlns="http://www.w3.org/2000/svg"><path d="m15 7.5v-5.5h-6v5.5l3 3zm-7.5 1.5h-5.5v6h5.5l3-3zm1.5 7.5v5.5h6v-5.5l-3-3zm7.5-7.5-3 3 3 3h5.5v-6z"/></svg>

<svg xmlns="http://www.w3.org/2000/svg" width="24" height="24" viewBox="0 0 24 24"><path d="M15 7.5V2H9v5.5l3 3 3-3zM7.5 9H2v6h5.5l3-3-3-3zM9 16.5V22h6v-5.5l-3-3-3 3zM16.5 9l-3 3 3 3H22V9h-5.5z"/></svg>
